X: 37
T:Le Parc de Sceaux
% Nottingham Music Database
S:Chris Dewhurst, via EF
M:4/4
L:1/4
K:Am
P:A
A/2B/2|"Am"c/2AG/2 AA/2B/2|"Am"c/2A/2c/2e/2 a/2e/2d/2c/2|"G"B/2GF/2 GG/2A/2|\
"G"B/2G/2B/2d/2 g/2G/2A/2B/2|
"Am"c/2AG/2 AA/2B/2|"Am"c/2A/2c/2e/2 ae/2f/2|"C"g/2f/2g/2e/2 "G"d/2B/2G/2B/2|\
"Am"cA A:|
P:B
E/2D/2|"Am"E/2AG/2 AA/2B/2|"Am"c/2A/2e/2A/2 c/2A/2e/2A/2|"G"D/2GF/2 GG/2A/2|\
"G"B/2G/2d/2G/2 e/2G/2d/2G/2|
"Am"E/2AG/2 AA/2B/2|"Am"c/2A/2c/2e/2 ae/2f/2|"C"g/2f/2g/2e/2 "G"d/2B/2G/2B/2|\
"Am"cA A:|


